X: 40563
T: Tommy Reck's
R: polka
M: 2/4
K: Dmajor
|:B/|Ad f/g/f/e/|dF A>d|cE G>B|AD FA|
Ad f/g/f/e/|dF Ad|cA GE|FD D3/2:|
|:g/|fd d2|cB B2|eB cB|BA FA|
fd d2|cB B2|Be Bc|d2 d3/2:|

